assets/icons/qvision/switch_camera.svg

<svg xmlns="http://www.w3.org/2000/svg" height="24" viewBox="0 0 24 24" width="24"><path d="M0 0h24v24H0z" fill="none"/><path d="M20 4h-3.17L15 2H9L7.17 4H4c-1.1 0-2 .9-2 2v12c0 1.1.9 2 2 2h16c1.1 0 2-.9 2-2V6c0-1.1-.9-2-2-2zm-5 11.5V13H9v2.5L5.5 12 9 8.5V11h6V8.5l3.5 3.5-3.5 3.5z"/></svg>

<svg width="24" height="24" viewBox="0 0 24 24" fill="none" xmlns="http://www.w3.org/2000/svg">
<g clip-path="url(#clip0_147_3728)">
<path d="M20 4H16.83L15 2H9L7.17 4H4C2.9 4 2 4.9 2 6V18C2 19.1 2.9 20 4 20H20C21.1 20 22 19.1 22 18V6C22 4.9 21.1 4 20 4ZM15 15.5V13H9V15.5L5.5 12L9 8.5V11H15V8.5L18.5 12L15 15.5Z" fill="#323232"/>
</g>
<defs>
<clipPath id="clip0_147_3728">
<rect width="24" height="24" fill="white"/>
</clipPath>
</defs>
</svg>
